!!!OTL: Xiangqi wushi laodage
!!!ARE: Asia, China,ÿHubei Suixian
!! I, 424
!!!SCT: C2166
!!!YEM: Copyright 1995, estate of Helmut Schaffrath.
**kern
*ICvox
*Ivox
*M2/4
*k[f#c#]
*D:
{8.f#
16e
16d
16e
8f#
=1
4.e
8f#
=2
8a
16b
16dd
16b
16a
8f#
=3
2a}
=4
{8.a
16b
8dd
8b
=5
8ee
16ff#
16ee
8dd
16b
16a
=6
8.f#
16a
8b
8dd
=7
2a}
=8
{8.a
16b
8dd
16b
16dd
=9
8ee
16ff#
16ee
8dd
16b
16a
=10
8.f#
16a
16b
16a
16b
16dd
=11
2a}
=12
{8dd
16dd
16b
16a
16b
8dd
=13
8a
16b
16a
8f#
8e
=14
8.a
16b
8f#
8e
=15
2d}
==
!!!AGN: Xiaodiao
!!!ONB: ESAC (Essen Associative Code) Database: SENGANSU
!!!AMT: simple duple
!!!AIN: vox
!!!EED: Helmut Schaffrath
!!!EEV: 1.0
*-
